icons/1_Primary/Misskey.svg

<svg width="1024" height="1024" fill="none" xmlns="http://www.w3.org/2000/svg"><g clip-path="url(#a)"><path d="M512 1024c282.77 0 512-229.23 512-512S794.77 0 512 0 0 229.23 0 512s229.23 512 512 512Z" fill="#98DC9A"/><path d="M182.32 419a24.516 24.516 0 0 0-17.375 7.185 24.524 24.524 0 0 0-7.185 17.375v92a24.364 24.364 0 0 0 15.131 22.742 24.387 24.387 0 0 0 9.429 1.818 24.713 24.713 0 0 0 24.77-24.56v-16.73c.05-3.62 3.78-2.67 5.67 0a23.25 23.25 0 0 0 19.73 11.33c8.71 0 16-4.34 19.73-11.34 1.43-1.69 5.46-4.56 5.88 0v16.72a24.349 24.349 0 0 0 7.134 17.426 24.362 24.362 0 0 0 17.426 7.134 24.713 24.713 0 0 0 24.77-24.56v-92a23.23 23.23 0 0 0-4.61-14.06 22.857 22.857 0 0 0-11.55-9 25.185 25.185 0 0 0-8.4-1.47 24.498 24.498 0 0 0-19.11 8.82L238.85 457c-.56.42-2.41 3.63-6.36 3.63s-5.58-3.21-6.14-3.62l-25.14-29.17a23.853 23.853 0 0 0-18.89-8.84Zm155.32 0a20.61 20.61 0 0 0-15.11 6.3 20.257 20.257 0 0 0-4.587 6.82 20.259 20.259 0 0 0-1.503 8.08 21.379 21.379 0 0 0 36.32 15.11 20.61 20.61 0 0 0 6.29-15.11 19.926 19.926 0 0 0-6.29-14.9 20.643 20.643 0 0 0-15.12-6.3Zm234.79 1.47a20.601 20.601 0 0 0-15.11 6.3 20.257 20.257 0 0 0-4.587 6.82 20.259 20.259 0 0 0-1.503 8.08v97.79a21.365 21.365 0 0 0 13.159 19.561 21.374 21.374 0 0 0 23.151-4.451 20.613 20.613 0 0 0 6.3-15.11c0-4.193.557-6.29 1.67-6.29a2.798 2.798 0 0 1 1.68.62l21 20.36a20.71 20.71 0 0 0 14.9 6.09 20.182 20.182 0 0 0 15.11-6.3 21.2 21.2 0 0 0 6.09-14.9 20.515 20.515 0 0 0-6.5-15.32c-9.513-9.373-14.48-14.2-14.9-14.48-1.82-1.82-1.75-3.36.21-4.62l.42-.21v-.21l13.22-8.4c6.293-4.193 9.44-10.137 9.44-17.83a22.068 22.068 0 0 0-3.36-11.76c-4.193-6.293-10.14-9.44-17.84-9.44a22.005 22.005 0 0 0-11.75 3.36c-16.233 10.8-24.643 16.34-25.23 16.62a2.532 2.532 0 0 1-2.72.41 2.64 2.64 0 0 1-1.47-2.73V441.7a19.926 19.926 0 0 0-6.29-14.9 20.616 20.616 0 0 0-15.09-6.3v-.03Zm141.59 36A50.924 50.924 0 0 0 676.67 472a50.34 50.34 0 0 0-15.32 36.94 52.676 52.676 0 0 0 32.453 48.632 52.679 52.679 0 0 0 57.367-11.282 16.625 16.625 0 0 0 3.599-18.114 16.622 16.622 0 0 0-27.109-5.386 18.264 18.264 0 0 1-13.66 5.86 19.363 19.363 0 0 1-19.73-19.73 18.278 18.278 0 0 1 5.88-13.64 14.325 14.325 0 0 1 7.13-4.2 2.195 2.195 0 0 1 1.68.21c.28.42.14.84-.42 1.26l-4.2 4.41a15.75 15.75 0 0 0-4.83 11.54c0 4.613 1.4 8.32 4.2 11.12 2.8 2.8 6.72 4.2 11.76 4.2 3.493 0 6.99-1.747 10.49-5.24l24.35-24.13a16.722 16.722 0 0 0 0-23.51c-9.78-9.653-21.883-14.48-36.31-14.48l.02.01Zm-305.34.34c-13.12-.18-23.347 3.273-30.68 10.36-6.433 6.153-9.65 13.917-9.65 23.29.14 11.753 4.687 20.567 13.64 26.44a33.876 33.876 0 0 0 9.86 4.41 86.083 86.083 0 0 0 9.86 2.52c4.06.98 8.467 1.89 13.22 2.73.98.28 1.4.77 1.26 1.47 0 .84-.35 1.26-1.05 1.26-1.82.14-3.487.21-5 .21-11.473-1.26-19.24-2.31-23.3-3.15a14.577 14.577 0 0 0-3.56-.42 16.122 16.122 0 0 0-16 16.16 15.65 15.65 0 0 0 12.6 15.53 145.703 145.703 0 0 0 31.89 4c13.013 0 23.157-3.497 30.43-10.49 6.293-6 9.44-13.767 9.44-23.3 0-11.753-4.477-20.567-13.43-26.44-4.76-3.073-11.337-5.31-19.73-6.71-5.033-.98-9.23-1.89-12.59-2.73a2.074 2.074 0 0 1-1.103-.577 2.074 2.074 0 0 1-.577-1.103c0-.7.56-1.12 1.68-1.26 1.33-.139 2.67-.139 4 0 11.613 1.12 19.447 2.1 23.5 2.94 1.099.277 2.227.418 3.36.42a16.006 16.006 0 0 0 8.556-2.416 16.01 16.01 0 0 0 7.444-15.374 16.002 16.002 0 0 0-3.41-8.21 15.92 15.92 0 0 0-9-5.67 171.128 171.128 0 0 0-29-3.78 36.082 36.082 0 0 0-2.65-.12l-.01.01Zm91.32 0c-13.12-.173-23.357 3.283-30.71 10.37-6.433 6.153-9.65 13.917-9.65 23.29.14 11.753 4.687 20.567 13.64 26.44a33.876 33.876 0 0 0 9.86 4.41 85.617 85.617 0 0 0 9.86 2.52c4.06.98 8.467 1.89 13.22 2.73.98.28 1.4.77 1.26 1.47 0 .84-.35 1.26-1.05 1.26-1.82.14-3.487.21-5 .21-11.473-1.26-19.237-2.31-23.29-3.15a14.652 14.652 0 0 0-3.57-.42 16.129 16.129 0 0 0-15.95 16.16 15.665 15.665 0 0 0 12.59 15.53 145.732 145.732 0 0 0 31.9 4c13.007 0 23.15-3.497 30.43-10.49 6.293-6 9.44-13.767 9.44-23.3 0-11.753-4.477-20.567-13.43-26.44-4.76-3.073-11.337-5.31-19.73-6.71-5.04-.98-9.237-1.89-12.59-2.73a2.074 2.074 0 0 1-1.103-.577 2.074 2.074 0 0 1-.577-1.103c0-.7.56-1.12 1.68-1.26 1.33-.139 2.67-.139 4 0 11.613 1.12 19.45 2.1 23.51 2.94 1.095.276 2.22.417 3.35.42a16.001 16.001 0 0 0 12.6-26 15.938 15.938 0 0 0-9-5.67 171.128 171.128 0 0 0-29-3.78c-.913-.08-1.81-.123-2.69-.13v.01Zm284.59 1.48a20.601 20.601 0 0 0-15.11 6.3 20.248 20.248 0 0 0-6.09 14.9v29.17a51.584 51.584 0 0 0 15.107 36.303A51.584 51.584 0 0 0 814.8 560.07a45.055 45.055 0 0 0 7.77-.63c1.4-.28 2.377 0 2.93.84.42.56.28 1.33-.42 2.31-1.82 2.52-5.667 3.78-11.54 3.78a29.576 29.576 0 0 1-8.6-1.68 28.975 28.975 0 0 0-8.18-1.68c-8.253 0-14.06 3.78-17.42 11.34a17.626 17.626 0 0 0-1.89 8c0 8.253 3.71 14.06 11.13 17.42a57.842 57.842 0 0 0 25 5.24c15.953 0 28.62-4.687 38-14.06 9.513-9.373 14.273-21.893 14.28-37.56v-38.4a51.48 51.48 0 0 0 .42-6.29v-29.22a21.504 21.504 0 0 0-21.28-21.2 20.632 20.632 0 0 0-15.11 6.3 19.912 19.912 0 0 0-6.29 14.9v29.17a9.003 9.003 0 0 1-2.52 6.29 8.53 8.53 0 0 1-6.29 2.52 8.624 8.624 0 0 1-6.291-2.519 8.623 8.623 0 0 1-2.519-6.291v-29.17a19.926 19.926 0 0 0-6.29-14.9 20.627 20.627 0 0 0-15.08-6.3l-.02.01Zm-446.75 7.36a21.493 21.493 0 0 0-21.41 21.41v51.85a20.607 20.607 0 0 0 6.31 15.09 20.992 20.992 0 0 0 15.11 6.09 20.264 20.264 0 0 0 14.91-6.09 20.61 20.61 0 0 0 6.29-15.11v-51.84a20.618 20.618 0 0 0-6.29-15.12 20.007 20.007 0 0 0-14.91-6.29l-.01.01Z" fill="#fff"/></g><defs><clipPath id="a"><path fill="#fff" d="M0 0h1024v1024H0z"/></clipPath></defs></svg>

<svg width="1024" height="1024" viewBox="0 0 1024 1024" fill="none" xmlns="http://www.w3.org/2000/svg">
<g clip-path="url(#clip0_2_2826)">
<path d="M512 1024C794.77 1024 1024 794.77 1024 512C1024 229.23 794.77 0 512 0C229.23 0 0 229.23 0 512C0 794.77 229.23 1024 512 1024Z" fill="#98DC9A"/>
<path d="M182.32 419C179.094 418.996 175.898 419.629 172.917 420.861C169.935 422.094 167.226 423.903 164.945 426.185C162.663 428.466 160.854 431.175 159.622 434.157C158.389 437.138 157.756 440.334 157.76 443.56V535.56C157.735 538.792 158.353 541.997 159.578 544.989C160.803 547.98 162.611 550.697 164.897 552.983C167.183 555.269 169.9 557.077 172.891 558.302C175.883 559.527 179.088 560.145 182.32 560.12C188.858 560.136 195.136 557.56 199.779 552.957C204.421 548.354 207.05 542.098 207.09 535.56V518.83C207.14 515.21 210.87 516.16 212.76 518.83C214.802 522.251 217.69 525.089 221.144 527.073C224.599 529.057 228.506 530.12 232.49 530.16C241.2 530.16 248.49 525.82 252.22 518.82C253.65 517.13 257.68 514.26 258.1 518.82V535.54C258.073 538.773 258.69 541.978 259.915 544.97C261.14 547.962 262.948 550.68 265.234 552.966C267.52 555.252 270.238 557.06 273.23 558.285C276.222 559.51 279.427 560.127 282.66 560.1C289.198 560.116 295.476 557.54 300.119 552.937C304.761 548.334 307.39 542.078 307.43 535.54V443.54C307.467 438.476 305.848 433.539 302.82 429.48C300.061 425.295 296.003 422.132 291.27 420.48C288.574 419.516 285.733 419.019 282.87 419.01C279.229 418.967 275.625 419.737 272.319 421.262C269.013 422.788 266.089 425.032 263.76 427.83L238.85 457C238.29 457.42 236.44 460.63 232.49 460.63C228.54 460.63 226.91 457.42 226.35 457.01L201.21 427.84C198.936 425.032 196.054 422.778 192.782 421.247C189.51 419.715 185.933 418.947 182.32 419ZM337.64 419C334.825 418.962 332.031 419.502 329.433 420.585C326.834 421.669 324.485 423.273 322.53 425.3C320.551 427.236 318.99 429.557 317.943 432.12C316.895 434.682 316.384 437.432 316.44 440.2C316.476 444.392 317.743 448.48 320.084 451.957C322.425 455.434 325.737 458.147 329.607 459.757C333.477 461.367 337.735 461.804 341.852 461.013C345.968 460.223 349.762 458.239 352.76 455.31C354.785 453.354 356.387 451.005 357.469 448.406C358.551 445.807 359.089 443.015 359.05 440.2C359.101 437.415 358.568 434.65 357.484 432.083C356.401 429.517 354.792 427.206 352.76 425.3C350.803 423.273 348.452 421.669 345.852 420.585C343.252 419.502 340.457 418.962 337.64 419ZM572.43 420.47C569.615 420.432 566.821 420.971 564.222 422.055C561.623 423.138 559.274 424.743 557.32 426.77C555.341 428.706 553.78 431.027 552.733 433.59C551.685 436.152 551.174 438.902 551.23 441.67V539.46C551.263 543.652 552.528 547.741 554.868 551.219C557.208 554.697 560.519 557.41 564.389 559.021C568.259 560.631 572.517 561.068 576.634 560.277C580.75 559.485 584.543 557.501 587.54 554.57C589.567 552.615 591.171 550.266 592.255 547.667C593.338 545.069 593.878 542.275 593.84 539.46C593.84 535.267 594.397 533.17 595.51 533.17C596.123 533.187 596.713 533.405 597.19 533.79L618.19 554.15C620.141 556.108 622.465 557.656 625.024 558.702C627.583 559.748 630.326 560.271 633.09 560.24C635.909 560.304 638.71 559.776 641.313 558.691C643.915 557.606 646.261 555.987 648.2 553.94C652.11 549.967 654.298 544.614 654.29 539.04C654.337 536.174 653.783 533.33 652.664 530.691C651.544 528.052 649.884 525.678 647.79 523.72C638.277 514.347 633.31 509.52 632.89 509.24C631.07 507.42 631.14 505.88 633.1 504.62L633.52 504.41V504.2L646.74 495.8C653.033 491.607 656.18 485.663 656.18 477.97C656.19 473.812 655.026 469.735 652.82 466.21C648.627 459.917 642.68 456.77 634.98 456.77C630.825 456.758 626.751 457.923 623.23 460.13C606.997 470.93 598.587 476.47 598 476.75C597.634 477.073 597.183 477.284 596.701 477.357C596.218 477.43 595.725 477.361 595.28 477.16C594.778 476.918 594.366 476.524 594.102 476.034C593.838 475.543 593.736 474.982 593.81 474.43V441.7C593.861 438.915 593.328 436.15 592.244 433.583C591.161 431.017 589.552 428.706 587.52 426.8C585.568 424.776 583.222 423.173 580.627 422.089C578.031 421.006 575.242 420.465 572.43 420.5V420.47ZM714.02 456.47C707.064 456.37 700.161 457.696 693.737 460.367C687.313 463.038 681.504 466.997 676.67 472C671.728 476.784 667.819 482.53 665.184 488.883C662.549 495.237 661.244 502.063 661.35 508.94C661.352 519.345 664.435 529.516 670.211 538.171C675.986 546.826 684.196 553.577 693.803 557.572C703.411 561.567 713.986 562.627 724.195 560.619C734.405 558.612 743.791 553.626 751.17 546.29C752.713 544.746 753.937 542.914 754.772 540.897C755.607 538.88 756.036 536.719 756.036 534.536C756.035 532.354 755.605 530.193 754.769 528.176C753.933 526.16 752.709 524.328 751.165 522.785C749.621 521.242 747.789 520.018 745.772 519.183C743.755 518.348 741.594 517.919 739.411 517.919C737.229 517.92 735.068 518.35 733.051 519.186C731.035 520.022 729.203 521.246 727.66 522.79C725.921 524.67 723.807 526.163 721.453 527.173C719.1 528.182 716.56 528.686 714 528.65C711.395 528.7 708.807 528.224 706.391 527.251C703.974 526.277 701.779 524.825 699.937 522.983C698.095 521.141 696.643 518.946 695.669 516.529C694.696 514.113 694.22 511.525 694.27 508.92C694.241 506.362 694.749 503.825 695.762 501.476C696.775 499.126 698.27 497.015 700.15 495.28C702.062 493.209 704.542 491.748 707.28 491.08C707.56 491.002 707.853 490.981 708.141 491.017C708.429 491.053 708.708 491.146 708.96 491.29C709.24 491.71 709.1 492.13 708.54 492.55L704.34 496.96C702.789 498.452 701.561 500.245 700.73 502.23C699.899 504.215 699.484 506.349 699.51 508.5C699.51 513.113 700.91 516.82 703.71 519.62C706.51 522.42 710.43 523.82 715.47 523.82C718.963 523.82 722.46 522.073 725.96 518.58L750.31 494.45C753.404 491.32 755.14 487.096 755.14 482.695C755.14 478.294 753.404 474.07 750.31 470.94C740.53 461.287 728.427 456.46 714 456.46L714.02 456.47ZM408.68 456.81C395.56 456.63 385.333 460.083 378 467.17C371.567 473.323 368.35 481.087 368.35 490.46C368.49 502.213 373.037 511.027 381.99 516.9C385.02 518.888 388.349 520.377 391.85 521.31C395.084 522.344 398.377 523.185 401.71 523.83C405.77 524.81 410.177 525.72 414.93 526.56C415.91 526.84 416.33 527.33 416.19 528.03C416.19 528.87 415.84 529.29 415.14 529.29C413.32 529.43 411.653 529.5 410.14 529.5C398.667 528.24 390.9 527.19 386.84 526.35C385.675 526.064 384.479 525.923 383.28 525.93C379.019 525.962 374.943 527.68 371.945 530.708C368.947 533.736 367.269 537.829 367.28 542.09C367.238 545.742 368.475 549.294 370.776 552.13C373.077 554.966 376.298 556.908 379.88 557.62C390.33 560.125 401.025 561.467 411.77 561.62C424.783 561.62 434.927 558.123 442.2 551.13C448.493 545.13 451.64 537.363 451.64 527.83C451.64 516.077 447.163 507.263 438.21 501.39C433.45 498.317 426.873 496.08 418.48 494.68C413.447 493.7 409.25 492.79 405.89 491.95C405.472 491.875 405.087 491.674 404.787 491.373C404.486 491.073 404.285 490.688 404.21 490.27C404.21 489.57 404.77 489.15 405.89 489.01C407.22 488.871 408.56 488.871 409.89 489.01C421.503 490.13 429.337 491.11 433.39 491.95C434.489 492.227 435.617 492.368 436.75 492.37C439.773 492.389 442.739 491.551 445.306 489.954C447.872 488.356 449.933 486.064 451.251 483.343C452.568 480.623 453.088 477.584 452.75 474.58C452.412 471.576 451.229 468.73 449.34 466.37C447.079 463.504 443.901 461.502 440.34 460.7C430.799 458.615 421.097 457.35 411.34 456.92C410.447 456.847 409.563 456.807 408.69 456.8L408.68 456.81ZM500 456.81C486.88 456.637 476.643 460.093 469.29 467.18C462.857 473.333 459.64 481.097 459.64 490.47C459.78 502.223 464.327 511.037 473.28 516.91C476.31 518.898 479.639 520.387 483.14 521.32C486.374 522.355 489.666 523.196 493 523.84C497.06 524.82 501.467 525.73 506.22 526.57C507.2 526.85 507.62 527.34 507.48 528.04C507.48 528.88 507.13 529.3 506.43 529.3C504.61 529.44 502.943 529.51 501.43 529.51C489.957 528.25 482.193 527.2 478.14 526.36C476.972 526.074 475.773 525.933 474.57 525.94C470.318 525.987 466.257 527.712 463.27 530.738C460.283 533.765 458.612 537.848 458.62 542.1C458.58 545.75 459.816 549.3 462.114 552.135C464.413 554.971 467.63 556.915 471.21 557.63C481.663 560.136 492.362 561.477 503.11 561.63C516.117 561.63 526.26 558.133 533.54 551.14C539.833 545.14 542.98 537.373 542.98 527.84C542.98 516.087 538.503 507.273 529.55 501.4C524.79 498.327 518.213 496.09 509.82 494.69C504.78 493.71 500.583 492.8 497.23 491.96C496.812 491.885 496.427 491.684 496.127 491.383C495.826 491.083 495.625 490.698 495.55 490.28C495.55 489.58 496.11 489.16 497.23 489.02C498.56 488.881 499.9 488.881 501.23 489.02C512.843 490.14 520.68 491.12 524.74 491.96C525.835 492.236 526.96 492.377 528.09 492.38C531.114 492.401 534.082 491.564 536.649 489.968C539.217 488.371 541.28 486.079 542.599 483.358C543.917 480.637 544.438 477.598 544.1 474.593C543.762 471.588 542.58 468.74 540.69 466.38C538.428 463.515 535.251 461.514 531.69 460.71C522.149 458.625 512.447 457.36 502.69 456.93C501.777 456.85 500.88 456.807 500 456.8V456.81ZM784.59 458.29C781.775 458.252 778.981 458.791 776.382 459.875C773.783 460.958 771.434 462.563 769.48 464.59C767.5 466.525 765.938 468.846 764.891 471.409C763.843 473.972 763.333 476.722 763.39 479.49V508.66C763.435 522.281 768.866 535.331 778.497 544.963C788.129 554.594 801.179 560.025 814.8 560.07C817.403 560.085 820.003 559.874 822.57 559.44C823.97 559.16 824.947 559.44 825.5 560.28C825.92 560.84 825.78 561.61 825.08 562.59C823.26 565.11 819.413 566.37 813.54 566.37C810.606 566.24 807.707 565.674 804.94 564.69C802.309 563.738 799.553 563.172 796.76 563.01C788.507 563.01 782.7 566.79 779.34 574.35C778.088 576.83 777.441 579.572 777.45 582.35C777.45 590.603 781.16 596.41 788.58 599.77C796.419 603.358 804.96 605.148 813.58 605.01C829.533 605.01 842.2 600.323 851.58 590.95C861.093 581.577 865.853 569.057 865.86 553.39V514.99C866.128 512.904 866.269 510.803 866.28 508.7V479.48C866.202 473.868 863.932 468.509 859.956 464.547C855.98 460.586 850.612 458.337 845 458.28C842.185 458.243 839.392 458.783 836.793 459.866C834.194 460.95 831.845 462.554 829.89 464.58C827.858 466.486 826.248 468.796 825.165 471.363C824.081 473.929 823.548 476.695 823.6 479.48V508.65C823.611 510.995 822.707 513.252 821.08 514.94C820.259 515.767 819.278 516.418 818.196 516.851C817.114 517.285 815.955 517.492 814.79 517.46C813.626 517.487 812.468 517.278 811.386 516.845C810.305 516.412 809.323 515.764 808.499 514.941C807.676 514.117 807.028 513.135 806.595 512.054C806.162 510.972 805.953 509.814 805.98 508.65V479.48C806.031 476.695 805.498 473.93 804.414 471.363C803.331 468.797 801.722 466.486 799.69 464.58C797.738 462.558 795.394 460.956 792.801 459.872C790.208 458.789 787.42 458.247 784.61 458.28L784.59 458.29ZM337.84 465.65C332.168 465.671 326.735 467.934 322.724 471.944C318.714 475.955 316.451 481.388 316.43 487.06V538.91C316.396 541.723 316.939 544.513 318.024 547.108C319.109 549.703 320.714 552.048 322.74 554C324.726 555.97 327.086 557.524 329.68 558.57C332.275 559.616 335.053 560.133 337.85 560.09C340.62 560.148 343.371 559.637 345.936 558.589C348.5 557.542 350.823 555.98 352.76 554C354.785 552.044 356.387 549.695 357.469 547.096C358.551 544.497 359.089 541.705 359.05 538.89V487.05C359.09 484.234 358.553 481.439 357.471 478.838C356.389 476.238 354.786 473.887 352.76 471.93C350.85 469.901 348.537 468.293 345.97 467.21C343.402 466.126 340.636 465.592 337.85 465.64L337.84 465.65Z" fill="white"/>
</g>
<defs>
<clipPath id="clip0_2_2826">
<rect width="1024" height="1024" fill="white"/>
</clipPath>
</defs>
</svg>
